svgs/light/superscript.svg

<svg xmlns="http://www.w3.org/2000/svg" viewBox="0 0 512 512"><!--! Font Awesome Pro 6.3.0 by @fontawesome - https://fontawesome.com License - https://fontawesome.com/license (Commercial License) Copyright 2023 Fonticons, Inc. --><path d="M336 96C344.8 96 352 88.84 352 80S344.8 64 336 64L288 64.01c-5.469 0-10.56 2.79-13.5 7.399L176 226.2L77.5 71.41C74.56 66.8 69.47 64.01 64 64.01L16 64C7.156 64 0 71.16 0 80S7.156 96 16 96h39.22l101.8 160l-101.8 160H16C7.156 416 0 423.2 0 432S7.156 448 16 448L64 448c5.469 0 10.56-2.804 13.5-7.414L176 285.8l98.5 154.8c2.938 4.609 8.031 7.414 13.5 7.414L336 448c8.844 0 16-7.156 16-16S344.8 416 336 416h-39.22L194.1 256l101.8-160H336zM496 160h-32V16C464 7.156 456.8 0 448 0h-32c-8.844 0-16 7.156-16 16S407.2 32 416 32h16v128h-32C391.2 160 384 167.2 384 176S391.2 192 400 192h96C504.8 192 512 184.8 512 176S504.8 160 496 160z"/></svg>

<svg xmlns="http://www.w3.org/2000/svg" viewBox="0 0 512 512"><!--! Font Awesome Pro 6.4.0 by @fontawesome - https://fontawesome.com License - https://fontawesome.com/license (Commercial License) Copyright 2023 Fonticons, Inc. --><path d="M464 16c0-5.1-2.5-10-6.6-13s-9.5-3.8-14.4-2.2l-48 16c-8.4 2.8-12.9 11.9-10.1 20.2s11.9 12.9 20.2 10.1l26.9-9V160H400c-8.8 0-16 7.2-16 16s7.2 16 16 16h48 48c8.8 0 16-7.2 16-16s-7.2-16-16-16H464V16zM16 64C7.2 64 0 71.2 0 80s7.2 16 16 16H55.2L157 256 55.2 416H16c-8.8 0-16 7.2-16 16s7.2 16 16 16H64c5.5 0 10.6-2.8 13.5-7.4L176 285.8l98.5 154.8c2.9 4.6 8 7.4 13.5 7.4h48c8.8 0 16-7.2 16-16s-7.2-16-16-16H296.8L195 256 296.8 96H336c8.8 0 16-7.2 16-16s-7.2-16-16-16H288c-5.5 0-10.6 2.8-13.5 7.4L176 226.2 77.5 71.4C74.6 66.8 69.5 64 64 64H16z"/></svg>
